svgs/sharp-regular/gamepad.svg

<svg xmlns="http://www.w3.org/2000/svg" viewBox="0 0 640 512"><!--! Font Awesome Pro 6.6.0 by @fontawesome - https://fontawesome.com License - https://fontawesome.com/license (Commercial License) Copyright 2024 Fonticons, Inc. --><path d="M48 112l0 288 544 0 0-288L48 112zM0 64l48 0 544 0 48 0 0 48 0 288 0 48-48 0L48 448 0 448l0-48L0 112 0 64zM232 200l0 32 32 0 24 0 0 48-24 0-32 0 0 32 0 24-48 0 0-24 0-32-32 0-24 0 0-48 24 0 32 0 0-32 0-24 48 0 0 24zm168 72a32 32 0 1 1 0 64 32 32 0 1 1 0-64zm32-64a32 32 0 1 1 64 0 32 32 0 1 1 -64 0z"/></svg>

<svg xmlns="http://www.w3.org/2000/svg" viewBox="0 0 640 512"><!--! Font Awesome Pro 6.5.2 by @fontawesome - https://fontawesome.com License - https://fontawesome.com/license (Commercial License) Copyright 2024 Fonticons, Inc. --><path d="M48 112V400H592V112H48zM0 64H48 592h48v48V400v48H592 48 0V400 112 64zM232 200v32h32 24v48H264 232v32 24H184V312 280H152 128V232h24 32V200 176h48v24zm168 72a32 32 0 1 1 0 64 32 32 0 1 1 0-64zm32-64a32 32 0 1 1 64 0 32 32 0 1 1 -64 0z"/></svg>
